blockchains/ethereum/assets/0x5B7533812759B45C2B44C19e320ba2cD2681b542/logo.svg

<svg fill="none" height="250" viewBox="0 0 250 250" width="250" xmlns="http://www.w3.org/2000/svg" xmlns:xlink="http://www.w3.org/1999/xlink"><clipPath id="a"><path d="m0 0h250v250h-250z"/></clipPath><g clip-path="url(#a)"><path d="m125 250c69.036 0 125-55.964 125-125 0-69.0356-55.964-125-125-125-69.0356 0-125 55.9644-125 125 0 69.036 55.9644 125 125 125z" fill="#6916ff"/><g fill="#fff"><path d="m133.937 50.1853c-.434-.3133-.738-.775-.855-1.2977-.116-.5227-.037-1.07.223-1.5382.363-.2332.786-.3572 1.218-.3572s.855.124 1.219.3572c5.506 2.2856 10.49 5.6665 14.649 9.9375 2.367 2.1953 4.351 4.7578 5.859 7.5781 1.594 2.875 2.898 5.8828 3.906 9 .961 3.2266 1.461 6.5781 1.469 9.9375-.492 3.3203-.977 19.4145-10.258 26.9925-1.181.71-2.584.958-3.937.695-1.353-.262-2.561-1.017-3.391-2.117-.663-.778-1.067-1.744-1.153-2.762-.087-1.019.147-2.039.669-2.918 3.946-6.1086 6.125-13.1895 6.298-20.4598.172-7.2703-1.67-14.4466-5.322-20.7354-3.125-4.4219-6.672-8.539-10.594-12.3125zm-14.406 145.1717c.977.946.977 1.891.492 2.367-.484.477-1.468.946-1.953.469-5.505-2.285-10.489-5.666-14.648-9.937-2.36-2.184-4.3403-4.745-5.8595-7.578-1.5907-2.864-2.8989-5.876-3.9063-8.993-.9654-3.227-1.46-6.577-1.4687-9.945.4922-3.312.9766-19.414 10.2575-26.992 1.181-.708 2.582-.955 3.933-.692 1.351.262 2.558 1.015 3.388 2.114.711.776 1.105 1.791 1.105 2.843 0 1.053-.394 2.068-1.105 2.844-3.945 6.108-6.124 13.188-6.296 20.456-.172 7.269 1.669 14.444 5.319 20.732 3.164 4.429 6.766 8.554 10.742 12.312z" fill-opacity=".5"/><path d="m161.672 156.296c-.708-9.09-4.302-17.715-10.258-24.617-6.03-6.061-12.945-11.171-20.508-15.157-6.597-3.646-12.813-7.944-18.555-12.828-4.722-4.4379-7.96-10.2243-9.273-16.5701-1.166-6.5519-.333-13.3031 2.391-19.375 3.263-6.7552 7.942-12.729 13.718-17.5156.325-.2898.548-.6762.637-1.1024s.038-.8696-.144-1.2648c-.14-.2492-.334-.4635-.568-.627s-.502-.2718-.784-.3169-.57-.0258-.843.0565c-.274.0823-.525.2254-.735.4186-7.781 3.3945-14.401 8.9882-19.0469 16.0938-5.1954 7.4649-7.6291 16.5061-6.8828 25.5703.3897 4.5798 1.5464 9.0615 3.4218 13.2576 2.0294 4.154 4.6621 7.984 7.8129 11.367 6.208 5.933 13.287 10.88 20.992 14.672 6.625 3.438 12.851 7.571 18.555 12.313 5.016 4.402 8.306 10.444 9.281 17.047 1.375 6.867.515 13.984-2.446 20.359-3.323 6.712-8.174 12.55-14.164 17.047-.198.114-.369.268-.503.453-.135.185-.228.396-.274.62-.047.224-.045.455.004.678s.145.433.281.616c.274.5.781.859 1.352.945.57.086 1.164-.078 1.586-.468 7.259-4.192 13.575-9.835 18.554-16.578 4.844-7.485 7.079-16.282 6.399-25.094z"/></g></g></svg>

<svg width="250" height="250" viewBox="0 0 250 250" fill="none" xmlns="http://www.w3.org/2000/svg">
<g clip-path="url(#clip0_49_10642)">
<path d="M125 250C194.036 250 250 194.036 250 125C250 55.9644 194.036 0 125 0C55.9644 0 0 55.9644 0 125C0 194.036 55.9644 250 125 250Z" fill="#6916FF"/>
<path d="M133.937 50.1853C133.503 49.872 133.199 49.4103 133.082 48.8876C132.966 48.3649 133.045 47.8176 133.305 47.3494C133.668 47.1162 134.091 46.9922 134.523 46.9922C134.955 46.9922 135.378 47.1162 135.742 47.3494C141.248 49.635 146.232 53.0159 150.391 57.2869C152.758 59.4822 154.742 62.0447 156.25 64.865C157.844 67.74 159.148 70.7478 160.156 73.865C161.117 77.0916 161.617 80.4431 161.625 83.8025C161.133 87.1228 160.648 103.217 151.367 110.795C150.186 111.505 148.783 111.753 147.43 111.49C146.077 111.228 144.869 110.473 144.039 109.373C143.376 108.595 142.972 107.629 142.886 106.611C142.799 105.592 143.033 104.572 143.555 103.693C147.501 97.5844 149.68 90.5035 149.853 83.2332C150.025 75.9629 148.183 68.7866 144.531 62.4978C141.406 58.0759 137.859 53.9588 133.937 50.1853ZM119.531 195.357C120.508 196.303 120.508 197.248 120.023 197.724C119.539 198.201 118.555 198.67 118.07 198.193C112.565 195.908 107.581 192.527 103.422 188.256C101.062 186.072 99.0817 183.511 97.5625 180.678C95.9718 177.814 94.6636 174.802 93.6562 171.685C92.6908 168.458 92.1962 165.108 92.1875 161.74C92.6797 158.428 93.1641 142.326 102.445 134.748C103.626 134.04 105.027 133.793 106.378 134.056C107.729 134.318 108.936 135.071 109.766 136.17C110.477 136.946 110.871 137.961 110.871 139.013C110.871 140.066 110.477 141.081 109.766 141.857C105.821 147.965 103.642 155.045 103.47 162.313C103.298 169.582 105.139 176.757 108.789 183.045C111.953 187.474 115.555 191.599 119.531 195.357Z" fill="white" fill-opacity="0.5"/>
<path d="M161.672 156.296C160.964 147.206 157.37 138.581 151.414 131.679C145.384 125.618 138.469 120.508 130.906 116.522C124.309 112.876 118.093 108.578 112.351 103.694C107.629 99.2561 104.391 93.4697 103.078 87.1239C101.912 80.572 102.745 73.8208 105.469 67.7489C108.732 60.9937 113.411 55.0199 119.187 50.2333C119.512 49.9435 119.735 49.5571 119.824 49.1309C119.913 48.7047 119.862 48.2613 119.68 47.8661C119.54 47.6169 119.346 47.4026 119.112 47.2391C118.878 47.0756 118.61 46.9673 118.328 46.9222C118.046 46.8771 117.758 46.8964 117.485 46.9787C117.211 47.061 116.96 47.2041 116.75 47.3973C108.969 50.7918 102.349 56.3855 97.7031 63.4911C92.5077 70.956 90.074 79.9972 90.8203 89.0614C91.21 93.6412 92.3667 98.1229 94.2421 102.319C96.2715 106.473 98.9042 110.303 102.055 113.686C108.263 119.619 115.342 124.566 123.047 128.358C129.672 131.796 135.898 135.929 141.602 140.671C146.618 145.073 149.908 151.115 150.883 157.718C152.258 164.585 151.398 171.702 148.437 178.077C145.114 184.789 140.263 190.627 134.273 195.124C134.075 195.238 133.904 195.392 133.77 195.577C133.635 195.762 133.542 195.973 133.496 196.197C133.449 196.421 133.451 196.652 133.5 196.875C133.549 197.098 133.645 197.308 133.781 197.491C134.055 197.991 134.562 198.35 135.133 198.436C135.703 198.522 136.297 198.358 136.719 197.968C143.978 193.776 150.294 188.133 155.273 181.39C160.117 173.905 162.352 165.108 161.672 156.296Z" fill="white"/>
</g>
<defs>
<clipPath id="clip0_49_10642">
<rect width="250" height="250" fill="white"/>
</clipPath>
</defs>
</svg>
